X: 3
T: Walsh's
R: hornpipe
M: 4/4
L: 1/8
K: Amaj
|: E/ |(3ABc E>F A>ce>c | (3def B>c d>e f2 | f>ec>e a>ec>A | (3Bcd c>A B>A F2 |
(3ABc E>F A>c e2 | (3def B>c d>e f2 | f>ec>e a>ec>A |[1 (3Bcd c>B A2- A3/ :|[2 (3Bcd c>B A4 ||
|: a>ec>e f>ec>e | a>ec>e f>ec>B | A>ec>e f>ec>A | (3Bcd c>A B>A F2 |
A>cE>F A>c e2 | d>fB>c d>e f2 | f>ec>e a>e (3cBA |[1 B>dc>B A4 :|[2 (3Bcd c>B A2- A3/ |]


Tune 2332	Setting 2332

